X:1
T: Fair Haired Lassie
P:Adapted by Bruce Shawyer
R:Strathspey
Q: 128
K:A
M:4/4
L:1/16
|:E4 E2C2 EA3 A4|E3F E3C EA3 A4|f3d e3c d3B c3A|B3c B3A ((3G2B2A2) ((3G2A2F2)|
E4 E2C2 EA3 A4|E3F E3C EA3 A4|f3d e3c d3B c3A|((3G2A2B2) ((3E2F2G2) A4 Ac3|
e4-e2d2 ce3 a4|e3f e3d ce3 a4|f3g f3e d3e d3c|B3c B3A ((3G2B2A2) ((3G2F2E2)|
e4-e2d2 ce3 a4|e3f e3d ce3 a4|f3g f3e d3e d3c|((3B2c2d2) ((3E2F2G2) A8:|
